public/images/logos/isabel-marant.svg

<svg xmlns="http://www.w3.org/2000/svg" width="477" height="165" fill="none"><path fill="#000" fill-rule="evenodd" d="M37 41h21V0H37v41ZM96.718 1.092C85.273 3.787 80.711 9.673 84.456 16.915c2.302 4.452 11.696 7.83 26.764 9.626 6.154.734 9.262 2.857 6.716 4.587-2.213 1.503-15.417.442-18.341-1.474C97.851 28.511 94.896 28 90.035 28c-3.869 0-7.035.269-7.035.599 0 2.657 3.869 7.804 7.11 9.457 5.273 2.69 17.691 4.281 27.944 3.579 17.621-1.206 25.327-7.001 21.497-16.168-1.975-4.727-6.965-6.842-21.299-9.028-11.853-1.808-16.004-3.518-13.252-5.459 2.46-1.736 16.453-.785 18.727 1.273 1.46 1.321 3.68 1.747 9.102 1.747 7.674 0 8.078-.346 5.722-4.901-1.916-3.706-5.271-5.791-12.235-7.605-6.285-1.637-23.369-1.869-29.598-.402Zm77.244 6.158c-1.833 3.987-6.156 13.212-9.606 20.5L158.083 41h6.798c6.281 0 6.885-.19 7.937-2.5 1.091-2.394 1.515-2.5 10.052-2.5 8.673 0 8.93.067 9.541 2.5.621 2.477.729 2.5 11.608 2.5 6.04 0 10.981-.209 10.981-.466 0-.256-4.345-9.481-9.656-20.5L195.687 0h-18.391l-3.334 7.25ZM236 41.131l23.75-.316c20.427-.271 24.202-.562 26.983-2.082 6.8-3.716 8.144-12.944 2.549-17.497-1.796-1.462-2.392-2.524-1.682-3 4.07-2.723 4.376-9.414.603-13.186C284.146.993 277.708 0 255.451 0H236v41.131ZM318 41h51v-9h-30v-8h18.127l-.627-6.5-17.5-.578V10h30V0h-51v41Zm78 0h51v-9h-30V0h-21v41ZM272.866 11.724c.612 1.094.617 2.374.014 3.5-.78 1.458-2.288 1.776-8.415 1.776H257v-7h7.45c6.014 0 7.637.333 8.416 1.724Zm-89.574 17.085c-2.479.17-4.76.056-5.069-.253-.309-.309.505-2.839 1.808-5.623l2.371-5.061L187.8 28.5l-4.508.309Zm91.137-3.238c1.815 1.816 1.89 2.375.593 4.429-.717 1.137-2.955 1.5-9.234 1.5H257.5l-.621-7.5h7.989c5.93 0 8.394.405 9.561 1.571ZM0 103h13.947l.553-29.5 14.397 29.586 15.391-.586L57.5 73.601 58.053 103H79V62H48.482l-8.696 18.5L31.074 62H0v41Zm114.994-29.75a7483.219 7483.219 0 0 0-9.613 20.5l-4.315 9.25h6.806c6.29 0 6.893-.19 7.946-2.5 1.086-2.383 1.54-2.5 9.682-2.5s8.596.117 9.682 2.5c1.114 2.445 1.38 2.5 12.086 2.5 8.359 0 10.827-.295 10.441-1.25-.277-.687-4.674-9.912-9.77-20.5L138.674 62h-18.381l-5.299 11.25ZM179 103h21l.096-16.5 15.468 16.572 21.423-.572-6.993-7.661c-3.847-4.214-6.994-7.927-6.994-8.25 0-.324 1.109-.589 2.465-.589 1.356 0 4.056-1.397 6-3.104 2.939-2.58 3.535-3.777 3.535-7.1 0-3.187-.668-4.664-3.297-7.293-4.951-4.951-8.903-5.723-31.953-6.24L179 61.798V103Zm89.211-30.25a3103.58 3103.58 0 0 0-9.623 20.5l-4.522 9.75h6.806c6.29 0 6.893-.19 7.946-2.5 1.086-2.383 1.54-2.5 9.682-2.5s8.596.117 9.682 2.5c1.114 2.445 1.38 2.5 12.086 2.5 8.359 0 10.827-.295 10.441-1.25-.277-.687-4.674-9.912-9.77-20.5L291.674 62h-18.361l-5.102 10.75ZM332 103h14V73.689L375.884 103H397V62h-21v17.194L357.268 62H332v41Zm88-31h18v31h21V72h18V62h-57v10Zm-204.441 1.441c1.552 1.153 1.72 1.804.836 3.25-.882 1.443-2.652 1.868-8.75 2.101l-7.645.292V72h6.809c4.365 0 7.505.517 8.75 1.441ZM128.397 85.75l2.637 5.25h-11.012l2.683-5.472c1.477-3.01 2.768-5.372 2.869-5.25.102.122 1.372 2.584 2.823 5.472Zm153 0 2.637 5.25h-11.012l2.683-5.472c1.477-3.01 2.768-5.372 2.869-5.25.102.122 1.372 2.584 2.823 5.472Zm21.617 56.22c-8.464 2.122-11.801 11.879-6.205 18.143 3.266 3.654 8.692 4.602 19.638 3.43l6.553-.702V151h-7c-6.8 0-7 .071-7 2.5 0 2 .5 2.5 2.5 2.5 3.305 0 3.299 2.761-.007 3.591-5.557 1.395-10.265-5.331-7.365-10.522 1.551-2.777 6.316-4.025 8.194-2.147 1.208 1.208 10.687 1.499 10.663.328-.028-1.34-1.439-2.926-3.63-4.079-2.989-1.573-12.165-2.248-16.341-1.201ZM121 142.338c0 .545 8.446 19.041 9.32 20.412.46.72 2.867 1.25 5.68 1.25 2.81 0 5.223-.53 5.686-1.25.441-.687 2.686-5.525 4.988-10.75l4.186-9.5-3.535-.317c-5.182-.464-5.787.03-8.312 6.783-1.265 3.381-2.615 5.785-3 5.341-.386-.444-1.724-3.395-2.973-6.557l-2.272-5.75h-4.884c-2.686 0-4.884.152-4.884.338ZM162 164h9v-22h-9v22Zm24 0h6.916l.584-15.5 7.939 15.5H214v-22h-8l-.098 13.5-6.93-13.5H186v22Zm39-19.5c0 2.19.433 2.5 3.5 2.5h3.5v17h9v-17h3.5c3.067 0 3.5-.31 3.5-2.5V142h-23v2.5Zm27.983 19.5h4.441c3.563 0 4.567-.396 5.076-2 .54-1.702 1.513-2 6.532-2 4.874 0 6.083.347 6.968 2 .825 1.542 2.094 2 5.535 2 2.456 0 4.465-.291 4.465-.647 0-.357-2.363-5.304-5.25-10.996l-5.25-10.348-11.483-.009-11.034 22ZM336 164h21v-2.5c0-2.389-.267-2.5-6-2.5-5.333 0-6-.222-6-2 0-1.758.667-2 5.5-2s5.5-.242 5.5-2-.667-2-5.5-2c-5.2 0-5.5-.136-5.5-2.5 0-2.389.267-2.5 6-2.5 5.333 0 6-.222 6-2 0-1.873-.667-2-10.5-2H336v22Zm-65.096-9.179c-4.089.681-4.691-.049-3.141-3.81l1.438-3.49 1.816 3.49c1.771 3.404 1.768 3.497-.113 3.81Z" clip-rule="evenodd"/></svg>

<svg width="477" height="165" viewBox="0 0 477 165" fill="none" xmlns="http://www.w3.org/2000/svg">
<path fill-rule="evenodd" clip-rule="evenodd" d="M37 41H58V0H37V41ZM96.718 1.092C85.273 3.787 80.711 9.673 84.456 16.915C86.758 21.367 96.152 24.745 111.22 26.541C117.374 27.275 120.482 29.398 117.936 31.128C115.723 32.631 102.519 31.57 99.595 29.654C97.851 28.511 94.896 28 90.035 28C86.166 28 83 28.269 83 28.599C83 31.256 86.869 36.403 90.11 38.056C95.383 40.746 107.801 42.337 118.054 41.635C135.675 40.429 143.381 34.634 139.551 25.467C137.576 20.74 132.586 18.625 118.252 16.439C106.399 14.631 102.248 12.921 105 10.98C107.46 9.244 121.453 10.195 123.727 12.253C125.187 13.574 127.407 14 132.829 14C140.503 14 140.907 13.654 138.551 9.099C136.635 5.393 133.28 3.308 126.316 1.494C120.031 -0.143 102.947 -0.375001 96.718 1.092ZM173.962 7.25C172.129 11.237 167.806 20.462 164.356 27.75L158.083 41H164.881C171.162 41 171.766 40.81 172.818 38.5C173.909 36.106 174.333 36 182.87 36C191.543 36 191.8 36.067 192.411 38.5C193.032 40.977 193.14 41 204.019 41C210.059 41 215 40.791 215 40.534C215 40.278 210.655 31.053 205.344 20.034L195.687 0H177.296L173.962 7.25ZM236 41.131L259.75 40.815C280.177 40.544 283.952 40.253 286.733 38.733C293.533 35.017 294.877 25.789 289.282 21.236C287.486 19.774 286.89 18.712 287.6 18.236C291.67 15.513 291.976 8.822 288.203 5.05C284.146 0.992999 277.708 0 255.451 0H236V41.131ZM318 41H369V32H339V24H357.127L356.5 17.5L339 16.922V10H369V0H318V41ZM396 41H447V32H417V0H396V41ZM272.866 11.724C273.478 12.818 273.483 14.098 272.88 15.224C272.1 16.682 270.592 17 264.465 17H257V10H264.45C270.464 10 272.087 10.333 272.866 11.724ZM183.292 28.809C180.813 28.979 178.532 28.865 178.223 28.556C177.914 28.247 178.728 25.717 180.031 22.933L182.402 17.872L187.8 28.5L183.292 28.809ZM274.429 25.571C276.244 27.387 276.319 27.946 275.022 30C274.305 31.137 272.067 31.5 265.788 31.5H257.5L256.879 24H264.868C270.798 24 273.262 24.405 274.429 25.571ZM0 103H13.947L14.5 73.5L28.897 103.086L44.288 102.5L57.5 73.601L58.053 103H79V62H48.482L39.786 80.5L31.074 62H0V103ZM114.994 73.25C112.08 79.438 107.754 88.662 105.381 93.75L101.066 103H107.872C114.162 103 114.765 102.81 115.818 100.5C116.904 98.117 117.358 98 125.5 98C133.642 98 134.096 98.117 135.182 100.5C136.296 102.945 136.562 103 147.268 103C155.627 103 158.095 102.705 157.709 101.75C157.432 101.063 153.035 91.838 147.939 81.25L138.674 62H120.293L114.994 73.25ZM179 103H200L200.096 86.5L215.564 103.072L236.987 102.5L229.994 94.839C226.147 90.625 223 86.912 223 86.589C223 86.265 224.109 86 225.465 86C226.821 86 229.521 84.603 231.465 82.896C234.404 80.316 235 79.119 235 75.796C235 72.609 234.332 71.132 231.703 68.503C226.752 63.552 222.8 62.78 199.75 62.263L179 61.798V103ZM268.211 72.75C265.405 78.662 261.075 87.888 258.588 93.25L254.066 103H260.872C267.162 103 267.765 102.81 268.818 100.5C269.904 98.117 270.358 98 278.5 98C286.642 98 287.096 98.117 288.182 100.5C289.296 102.945 289.562 103 300.268 103C308.627 103 311.095 102.705 310.709 101.75C310.432 101.063 306.035 91.838 300.939 81.25L291.674 62H273.313L268.211 72.75ZM332 103H346V73.689L375.884 103H397V62H376V79.194L357.268 62H332V103ZM420 72H438V103H459V72H477V62H420V72ZM215.559 73.441C217.111 74.594 217.279 75.245 216.395 76.691C215.513 78.134 213.743 78.559 207.645 78.792L200 79.084V72H206.809C211.174 72 214.314 72.517 215.559 73.441ZM128.397 85.75L131.034 91H120.022L122.705 85.528C124.182 82.518 125.473 80.156 125.574 80.278C125.676 80.4 126.946 82.862 128.397 85.75ZM281.397 85.75L284.034 91H273.022L275.705 85.528C277.182 82.518 278.473 80.156 278.574 80.278C278.676 80.4 279.946 82.862 281.397 85.75ZM303.014 141.97C294.55 144.092 291.213 153.849 296.809 160.113C300.075 163.767 305.501 164.715 316.447 163.543L323 162.841V151H316C309.2 151 309 151.071 309 153.5C309 155.5 309.5 156 311.5 156C314.805 156 314.799 158.761 311.493 159.591C305.936 160.986 301.228 154.26 304.128 149.069C305.679 146.292 310.444 145.044 312.322 146.922C313.53 148.13 323.009 148.421 322.985 147.25C322.957 145.91 321.546 144.324 319.355 143.171C316.366 141.598 307.19 140.923 303.014 141.97ZM121 142.338C121 142.883 129.446 161.379 130.32 162.75C130.78 163.47 133.187 164 136 164C138.81 164 141.223 163.47 141.686 162.75C142.127 162.063 144.372 157.225 146.674 152L150.86 142.5L147.325 142.183C142.143 141.719 141.538 142.213 139.013 148.966C137.748 152.347 136.398 154.751 136.013 154.307C135.627 153.863 134.289 150.912 133.04 147.75L130.768 142H125.884C123.198 142 121 142.152 121 142.338ZM162 164H171V142H162V164ZM186 164H192.916L193.5 148.5L201.439 164H214V142H206L205.902 155.5L198.972 142H186V164ZM225 144.5C225 146.69 225.433 147 228.5 147H232V164H241V147H244.5C247.567 147 248 146.69 248 144.5V142H225V144.5ZM252.983 164H257.424C260.987 164 261.991 163.604 262.5 162C263.04 160.298 264.013 160 269.032 160C273.906 160 275.115 160.347 276 162C276.825 163.542 278.094 164 281.535 164C283.991 164 286 163.709 286 163.353C286 162.996 283.637 158.049 280.75 152.357L275.5 142.009L264.017 142L252.983 164ZM336 164H357V161.5C357 159.111 356.733 159 351 159C345.667 159 345 158.778 345 157C345 155.242 345.667 155 350.5 155C355.333 155 356 154.758 356 153C356 151.242 355.333 151 350.5 151C345.3 151 345 150.864 345 148.5C345 146.111 345.267 146 351 146C356.333 146 357 145.778 357 144C357 142.127 356.333 142 346.5 142H336V164ZM270.904 154.821C266.815 155.502 266.213 154.772 267.763 151.011L269.201 147.521L271.017 151.011C272.788 154.415 272.785 154.508 270.904 154.821Z" fill="black"/>
</svg>
